images/4814.svg

<?xml version="1.0" encoding="UTF-8"?>
<svg xmlns="http://www.w3.org/2000/svg" xmlns:xlink="http://www.w3.org/1999/xlink" width="300pt" height="300pt" viewBox="0 0 300 300" version="1.1">
<defs>
<g>
<symbol overflow="visible" id="glyph0-0">
<path style="stroke:none;" d="M 0.453125 1.59375 L 0.453125 -6.34375 L 4.953125 -6.34375 L 4.953125 1.59375 Z M 0.953125 1.09375 L 4.453125 1.09375 L 4.453125 -5.84375 L 0.953125 -5.84375 Z M 0.953125 1.09375 "/>
</symbol>
<symbol overflow="visible" id="glyph0-1">
<path style="stroke:none;" d="M 3.546875 -5.953125 C 2.898438 -5.953125 2.382812 -5.710938 2 -5.234375 C 1.625 -4.753906 1.4375 -4.101562 1.4375 -3.28125 C 1.4375 -2.445312 1.625 -1.789062 2 -1.3125 C 2.382812 -0.832031 2.898438 -0.59375 3.546875 -0.59375 C 4.191406 -0.59375 4.703125 -0.832031 5.078125 -1.3125 C 5.453125 -1.789062 5.640625 -2.445312 5.640625 -3.28125 C 5.640625 -4.101562 5.453125 -4.753906 5.078125 -5.234375 C 4.703125 -5.710938 4.191406 -5.953125 3.546875 -5.953125 Z M 3.546875 -6.6875 C 4.460938 -6.6875 5.195312 -6.375 5.75 -5.75 C 6.300781 -5.132812 6.578125 -4.3125 6.578125 -3.28125 C 6.578125 -2.238281 6.300781 -1.410156 5.75 -0.796875 C 5.195312 -0.179688 4.460938 0.125 3.546875 0.125 C 2.617188 0.125 1.878906 -0.179688 1.328125 -0.796875 C 0.773438 -1.410156 0.5 -2.238281 0.5 -3.28125 C 0.5 -4.3125 0.773438 -5.132812 1.328125 -5.75 C 1.878906 -6.375 2.617188 -6.6875 3.546875 -6.6875 Z M 3.546875 -6.6875 "/>
</symbol>
<symbol overflow="visible" id="glyph0-2">
<path style="stroke:none;" d="M 0.890625 -6.5625 L 2.078125 -6.5625 L 4.984375 -1.078125 L 4.984375 -6.5625 L 5.84375 -6.5625 L 5.84375 0 L 4.65625 0 L 1.75 -5.484375 L 1.75 0 L 0.890625 0 Z M 0.890625 -6.5625 "/>
</symbol>
<symbol overflow="visible" id="glyph0-3">
<path style="stroke:none;" d="M 0.890625 -6.5625 L 1.765625 -6.5625 L 1.765625 -3.875 L 5 -3.875 L 5 -6.5625 L 5.890625 -6.5625 L 5.890625 0 L 5 0 L 5 -3.125 L 1.765625 -3.125 L 1.765625 0 L 0.890625 0 Z M 0.890625 -6.5625 "/>
</symbol>
</g>
</defs>
<g id="surface38761">
<rect x="0" y="0" width="300" height="300" style="fill:rgb(100%,100%,100%);fill-opacity:1;stroke:none;"/>
<path style="fill:none;stroke-width:1.2;stroke-linecap:butt;stroke-linejoin:miter;stroke:rgb(0%,0%,0%);stroke-opacity:1;stroke-miterlimit:10;" d="M 129.324219 217.675781 L 124.960938 208.148438 "/>
<path style="fill:none;stroke-width:1.2;stroke-linecap:butt;stroke-linejoin:miter;stroke:rgb(100%,0%,0%);stroke-opacity:1;stroke-miterlimit:10;" d="M 124.960938 208.148438 L 120.597656 198.621094 "/>
<path style="fill:none;stroke-width:1.2;stroke-linecap:butt;stroke-linejoin:miter;stroke:rgb(100%,0%,0%);stroke-opacity:1;stroke-miterlimit:10;" d="M 120.597656 198.621094 L 126.667969 190.082031 "/>
<path style="fill:none;stroke-width:1.2;stroke-linecap:butt;stroke-linejoin:miter;stroke:rgb(0%,0%,0%);stroke-opacity:1;stroke-miterlimit:10;" d="M 126.667969 190.082031 L 132.738281 181.539062 "/>
<path style=" stroke:none;fill-rule:nonzero;fill:rgb(100%,100%,100%);fill-opacity:1;" d="M 116.597656 193.121094 L 124.597656 193.121094 L 124.597656 204.121094 L 116.597656 204.121094 Z M 116.597656 193.121094 "/>
<g style="fill:rgb(100%,0%,0%);fill-opacity:1;">
  <use xlink:href="#glyph0-1" x="116.597656" y="201.78418"/>
</g>
<path style="fill:none;stroke-width:1.2;stroke-linecap:butt;stroke-linejoin:miter;stroke:rgb(0%,0%,0%);stroke-opacity:1;stroke-miterlimit:10;" d="M 132.738281 181.539062 L 124.011719 162.484375 "/>
<path style="fill:none;stroke-width:1.2;stroke-linecap:butt;stroke-linejoin:miter;stroke:rgb(0%,0%,0%);stroke-opacity:1;stroke-miterlimit:10;" d="M 136.347656 177.582031 L 129.371094 162.335938 "/>
<path style="fill:none;stroke-width:1.2;stroke-linecap:butt;stroke-linejoin:miter;stroke:rgb(0%,0%,0%);stroke-opacity:1;stroke-miterlimit:10;" d="M 153.601562 183.511719 L 132.738281 181.539062 "/>
<path style="fill:none;stroke-width:1.2;stroke-linecap:butt;stroke-linejoin:miter;stroke:rgb(0%,0%,0%);stroke-opacity:1;stroke-miterlimit:10;" d="M 124.011719 162.484375 L 136.152344 145.402344 "/>
<path style="fill:none;stroke-width:1.2;stroke-linecap:butt;stroke-linejoin:miter;stroke:rgb(0%,0%,0%);stroke-opacity:1;stroke-miterlimit:10;" d="M 124.011719 162.484375 L 103.148438 160.511719 "/>
<path style="fill:none;stroke-width:1.2;stroke-linecap:butt;stroke-linejoin:miter;stroke:rgb(0%,0%,0%);stroke-opacity:1;stroke-miterlimit:10;" d="M 136.152344 145.402344 L 157.015625 147.375 "/>
<path style="fill:none;stroke-width:1.2;stroke-linecap:butt;stroke-linejoin:miter;stroke:rgb(0%,0%,0%);stroke-opacity:1;stroke-miterlimit:10;" d="M 137.777344 150.507812 L 154.464844 152.085938 "/>
<path style="fill:none;stroke-width:1.2;stroke-linecap:butt;stroke-linejoin:miter;stroke:rgb(0%,0%,0%);stroke-opacity:1;stroke-miterlimit:10;" d="M 157.015625 147.375 L 165.742188 166.429688 "/>
<path style="fill:none;stroke-width:1.2;stroke-linecap:butt;stroke-linejoin:miter;stroke:rgb(0%,0%,0%);stroke-opacity:1;stroke-miterlimit:10;" d="M 157.015625 147.375 L 169.15625 130.292969 "/>
<path style="fill:none;stroke-width:1.2;stroke-linecap:butt;stroke-linejoin:miter;stroke:rgb(0%,0%,0%);stroke-opacity:1;stroke-miterlimit:10;" d="M 165.742188 166.429688 L 153.601562 183.511719 "/>
<path style="fill:none;stroke-width:1.2;stroke-linecap:butt;stroke-linejoin:miter;stroke:rgb(0%,0%,0%);stroke-opacity:1;stroke-miterlimit:10;" d="M 160.507812 165.28125 L 150.796875 178.945312 "/>
<path style="fill:none;stroke-width:1.2;stroke-linecap:butt;stroke-linejoin:miter;stroke:rgb(0%,0%,0%);stroke-opacity:1;stroke-miterlimit:10;" d="M 171.398438 129.265625 L 167.035156 119.738281 "/>
<path style="fill:none;stroke-width:1.2;stroke-linecap:butt;stroke-linejoin:miter;stroke:rgb(100%,0%,0%);stroke-opacity:1;stroke-miterlimit:10;" d="M 167.035156 119.738281 L 162.671875 110.210938 "/>
<path style="fill:none;stroke-width:1.2;stroke-linecap:butt;stroke-linejoin:miter;stroke:rgb(0%,0%,0%);stroke-opacity:1;stroke-miterlimit:10;" d="M 166.914062 131.316406 L 162.550781 121.789062 "/>
<path style="fill:none;stroke-width:1.2;stroke-linecap:butt;stroke-linejoin:miter;stroke:rgb(100%,0%,0%);stroke-opacity:1;stroke-miterlimit:10;" d="M 162.550781 121.789062 L 158.191406 112.261719 "/>
<path style="fill:none;stroke-width:1.2;stroke-linecap:butt;stroke-linejoin:miter;stroke:rgb(0%,0%,0%);stroke-opacity:1;stroke-miterlimit:10;" d="M 169.15625 130.292969 L 179.585938 131.277344 "/>
<path style="fill:none;stroke-width:1.2;stroke-linecap:butt;stroke-linejoin:miter;stroke:rgb(0%,0%,100%);stroke-opacity:1;stroke-miterlimit:10;" d="M 179.585938 131.277344 L 190.019531 132.261719 "/>
<path style=" stroke:none;fill-rule:nonzero;fill:rgb(100%,100%,100%);fill-opacity:1;" d="M 152.433594 105.738281 L 160.433594 105.738281 L 160.433594 116.738281 L 152.433594 116.738281 Z M 152.433594 105.738281 "/>
<g style="fill:rgb(100%,0%,0%);fill-opacity:1;">
  <use xlink:href="#glyph0-1" x="152.433594" y="114.401367"/>
</g>
<path style="fill:none;stroke-width:1.2;stroke-linecap:butt;stroke-linejoin:miter;stroke:rgb(0%,0%,100%);stroke-opacity:1;stroke-miterlimit:10;" d="M 190.019531 132.261719 L 196.089844 123.722656 "/>
<path style="fill:none;stroke-width:1.2;stroke-linecap:butt;stroke-linejoin:miter;stroke:rgb(0%,0%,0%);stroke-opacity:1;stroke-miterlimit:10;" d="M 196.089844 123.722656 L 202.160156 115.179688 "/>
<path style=" stroke:none;fill-rule:nonzero;fill:rgb(100%,100%,100%);fill-opacity:1;" d="M 183.019531 126.761719 L 197.019531 126.761719 L 197.019531 137.761719 L 183.019531 137.761719 Z M 183.019531 126.761719 "/>
<g style="fill:rgb(0%,0%,100%);fill-opacity:1;">
  <use xlink:href="#glyph0-2" x="183.019531" y="135.424805"/>
  <use xlink:href="#glyph0-3" x="189.99707" y="135.424805"/>
</g>
<path style="fill:none;stroke-width:1.2;stroke-linecap:butt;stroke-linejoin:miter;stroke:rgb(0%,0%,0%);stroke-opacity:1;stroke-miterlimit:10;" d="M 202.160156 115.179688 L 223.023438 117.152344 "/>
<path style="fill:none;stroke-width:1.2;stroke-linecap:butt;stroke-linejoin:miter;stroke:rgb(0%,0%,0%);stroke-opacity:1;stroke-miterlimit:10;" d="M 223.023438 117.152344 L 231.746094 136.207031 "/>
<path style="fill:none;stroke-width:1.2;stroke-linecap:butt;stroke-linejoin:miter;stroke:rgb(0%,0%,0%);stroke-opacity:1;stroke-miterlimit:10;" d="M 228.378906 117.003906 L 235.359375 132.25 "/>
<path style="fill:none;stroke-width:1.2;stroke-linecap:butt;stroke-linejoin:miter;stroke:rgb(0%,0%,0%);stroke-opacity:1;stroke-miterlimit:10;" d="M 235.164062 100.070312 L 223.023438 117.152344 "/>
<path style="fill:none;stroke-width:1.2;stroke-linecap:butt;stroke-linejoin:miter;stroke:rgb(0%,0%,0%);stroke-opacity:1;stroke-miterlimit:10;" d="M 231.746094 136.207031 L 242.179688 137.191406 "/>
<path style="fill:none;stroke-width:1.2;stroke-linecap:butt;stroke-linejoin:miter;stroke:rgb(0%,0%,100%);stroke-opacity:1;stroke-miterlimit:10;" d="M 242.179688 137.191406 L 252.609375 138.179688 "/>
<path style="fill:none;stroke-width:1.2;stroke-linecap:butt;stroke-linejoin:miter;stroke:rgb(0%,0%,100%);stroke-opacity:1;stroke-miterlimit:10;" d="M 252.609375 138.179688 L 258.679688 129.636719 "/>
<path style="fill:none;stroke-width:1.2;stroke-linecap:butt;stroke-linejoin:miter;stroke:rgb(0%,0%,0%);stroke-opacity:1;stroke-miterlimit:10;" d="M 258.679688 129.636719 L 264.75 121.097656 "/>
<path style="fill:none;stroke-width:1.2;stroke-linecap:butt;stroke-linejoin:miter;stroke:rgb(0%,0%,100%);stroke-opacity:1;stroke-miterlimit:10;" d="M 249.804688 133.613281 L 254.660156 126.78125 "/>
<path style="fill:none;stroke-width:1.2;stroke-linecap:butt;stroke-linejoin:miter;stroke:rgb(0%,0%,0%);stroke-opacity:1;stroke-miterlimit:10;" d="M 254.660156 126.78125 L 259.515625 119.949219 "/>
<path style=" stroke:none;fill-rule:nonzero;fill:rgb(100%,100%,100%);fill-opacity:1;" d="M 249.609375 132.679688 L 256.609375 132.679688 L 256.609375 143.679688 L 249.609375 143.679688 Z M 249.609375 132.679688 "/>
<g style="fill:rgb(0%,0%,100%);fill-opacity:1;">
  <use xlink:href="#glyph0-2" x="249.609375" y="141.342773"/>
</g>
<path style="fill:none;stroke-width:1.2;stroke-linecap:butt;stroke-linejoin:miter;stroke:rgb(0%,0%,0%);stroke-opacity:1;stroke-miterlimit:10;" d="M 264.75 121.097656 L 256.027344 102.042969 "/>
<path style="fill:none;stroke-width:1.2;stroke-linecap:butt;stroke-linejoin:miter;stroke:rgb(0%,0%,0%);stroke-opacity:1;stroke-miterlimit:10;" d="M 256.027344 102.042969 L 235.164062 100.070312 "/>
<path style="fill:none;stroke-width:1.2;stroke-linecap:butt;stroke-linejoin:miter;stroke:rgb(0%,0%,0%);stroke-opacity:1;stroke-miterlimit:10;" d="M 253.476562 106.753906 L 236.785156 105.175781 "/>
<path style="fill:none;stroke-width:1.2;stroke-linecap:butt;stroke-linejoin:miter;stroke:rgb(0%,0%,0%);stroke-opacity:1;stroke-miterlimit:10;" d="M 101.140625 159.085938 L 95.070312 167.625 "/>
<path style="fill:none;stroke-width:1.2;stroke-linecap:butt;stroke-linejoin:miter;stroke:rgb(100%,0%,0%);stroke-opacity:1;stroke-miterlimit:10;" d="M 95.070312 167.625 L 89 176.167969 "/>
<path style="fill:none;stroke-width:1.2;stroke-linecap:butt;stroke-linejoin:miter;stroke:rgb(0%,0%,0%);stroke-opacity:1;stroke-miterlimit:10;" d="M 105.160156 161.941406 L 99.089844 170.484375 "/>
<path style="fill:none;stroke-width:1.2;stroke-linecap:butt;stroke-linejoin:miter;stroke:rgb(100%,0%,0%);stroke-opacity:1;stroke-miterlimit:10;" d="M 99.089844 170.484375 L 93.019531 179.023438 "/>
<path style="fill:none;stroke-width:1.2;stroke-linecap:butt;stroke-linejoin:miter;stroke:rgb(0%,0%,0%);stroke-opacity:1;stroke-miterlimit:10;" d="M 103.148438 160.511719 L 98.789062 150.984375 "/>
<path style="fill:none;stroke-width:1.2;stroke-linecap:butt;stroke-linejoin:miter;stroke:rgb(0%,0%,100%);stroke-opacity:1;stroke-miterlimit:10;" d="M 98.789062 150.984375 L 94.425781 141.457031 "/>
<path style=" stroke:none;fill-rule:nonzero;fill:rgb(100%,100%,100%);fill-opacity:1;" d="M 83.011719 172.09375 L 91.011719 172.09375 L 91.011719 183.09375 L 83.011719 183.09375 Z M 83.011719 172.09375 "/>
<g style="fill:rgb(100%,0%,0%);fill-opacity:1;">
  <use xlink:href="#glyph0-1" x="83.011719" y="180.756836"/>
</g>
<path style="fill:none;stroke-width:1.2;stroke-linecap:butt;stroke-linejoin:miter;stroke:rgb(0%,0%,100%);stroke-opacity:1;stroke-miterlimit:10;" d="M 94.425781 141.457031 L 83.992188 140.472656 "/>
<path style="fill:none;stroke-width:1.2;stroke-linecap:butt;stroke-linejoin:miter;stroke:rgb(0%,0%,0%);stroke-opacity:1;stroke-miterlimit:10;" d="M 83.992188 140.472656 L 73.5625 139.488281 "/>
<path style=" stroke:none;fill-rule:nonzero;fill:rgb(100%,100%,100%);fill-opacity:1;" d="M 87.425781 135.957031 L 101.425781 135.957031 L 101.425781 146.957031 L 87.425781 146.957031 Z M 87.425781 135.957031 "/>
<g style="fill:rgb(0%,0%,100%);fill-opacity:1;">
  <use xlink:href="#glyph0-2" x="87.425781" y="144.620117"/>
  <use xlink:href="#glyph0-3" x="94.40332" y="144.620117"/>
</g>
<path style="fill:none;stroke-width:1.2;stroke-linecap:butt;stroke-linejoin:miter;stroke:rgb(0%,0%,0%);stroke-opacity:1;stroke-miterlimit:10;" d="M 73.5625 139.488281 L 64.835938 120.433594 "/>
<path style="fill:none;stroke-width:1.2;stroke-linecap:butt;stroke-linejoin:miter;stroke:rgb(0%,0%,0%);stroke-opacity:1;stroke-miterlimit:10;" d="M 64.835938 120.433594 L 76.976562 103.351562 "/>
<path style="fill:none;stroke-width:1.2;stroke-linecap:butt;stroke-linejoin:miter;stroke:rgb(0%,0%,0%);stroke-opacity:1;stroke-miterlimit:10;" d="M 62.03125 115.867188 L 71.742188 102.203125 "/>
<path style="fill:none;stroke-width:1.2;stroke-linecap:butt;stroke-linejoin:miter;stroke:rgb(0%,0%,0%);stroke-opacity:1;stroke-miterlimit:10;" d="M 43.972656 118.460938 L 64.835938 120.433594 "/>
<path style="fill:none;stroke-width:1.2;stroke-linecap:butt;stroke-linejoin:miter;stroke:rgb(0%,0%,0%);stroke-opacity:1;stroke-miterlimit:10;" d="M 76.976562 103.351562 L 72.613281 93.824219 "/>
<path style="fill:none;stroke-width:1.2;stroke-linecap:butt;stroke-linejoin:miter;stroke:rgb(0%,0%,100%);stroke-opacity:1;stroke-miterlimit:10;" d="M 72.613281 93.824219 L 68.253906 84.296875 "/>
<path style="fill:none;stroke-width:1.2;stroke-linecap:butt;stroke-linejoin:miter;stroke:rgb(0%,0%,100%);stroke-opacity:1;stroke-miterlimit:10;" d="M 68.253906 84.296875 L 57.820312 83.308594 "/>
<path style="fill:none;stroke-width:1.2;stroke-linecap:butt;stroke-linejoin:miter;stroke:rgb(0%,0%,0%);stroke-opacity:1;stroke-miterlimit:10;" d="M 57.820312 83.308594 L 47.390625 82.324219 "/>
<path style="fill:none;stroke-width:1.2;stroke-linecap:butt;stroke-linejoin:miter;stroke:rgb(0%,0%,100%);stroke-opacity:1;stroke-miterlimit:10;" d="M 65.703125 89.007812 L 57.355469 88.21875 "/>
<path style="fill:none;stroke-width:1.2;stroke-linecap:butt;stroke-linejoin:miter;stroke:rgb(0%,0%,0%);stroke-opacity:1;stroke-miterlimit:10;" d="M 57.355469 88.21875 L 49.011719 87.429688 "/>
<path style=" stroke:none;fill-rule:nonzero;fill:rgb(100%,100%,100%);fill-opacity:1;" d="M 65.253906 78.796875 L 72.253906 78.796875 L 72.253906 89.796875 L 65.253906 89.796875 Z M 65.253906 78.796875 "/>
<g style="fill:rgb(0%,0%,100%);fill-opacity:1;">
  <use xlink:href="#glyph0-2" x="65.253906" y="87.459961"/>
</g>
<path style="fill:none;stroke-width:1.2;stroke-linecap:butt;stroke-linejoin:miter;stroke:rgb(0%,0%,0%);stroke-opacity:1;stroke-miterlimit:10;" d="M 47.390625 82.324219 L 35.25 99.40625 "/>
<path style="fill:none;stroke-width:1.2;stroke-linecap:butt;stroke-linejoin:miter;stroke:rgb(0%,0%,0%);stroke-opacity:1;stroke-miterlimit:10;" d="M 35.25 99.40625 L 43.972656 118.460938 "/>
<path style="fill:none;stroke-width:1.2;stroke-linecap:butt;stroke-linejoin:miter;stroke:rgb(0%,0%,0%);stroke-opacity:1;stroke-miterlimit:10;" d="M 40.605469 99.257812 L 47.585938 114.503906 "/>
</g>
</svg>

<svg xmlns="http://www.w3.org/2000/svg" xmlns:xlink="http://www.w3.org/1999/xlink" width="300pt" height="300pt" viewBox="0 0 300 300"><defs><symbol overflow="visible"><path d="M.453 1.594v-7.938h4.5v7.938zm.5-.5h3.5v-6.938h-3.5zm0 0"/></symbol><symbol overflow="visible" id="a"><path d="M3.547-5.953c-.65 0-1.164.242-1.547.72-.375.48-.563 1.13-.563 1.952 0 .835.188 1.49.563 1.967.383.48.898.72 1.547.72.644 0 1.156-.24 1.53-.72.376-.476.564-1.132.564-1.968 0-.822-.187-1.474-.562-1.954-.375-.477-.887-.72-1.53-.72zm0-.734c.914 0 1.648.312 2.203.937.55.617.828 1.438.828 2.47 0 1.042-.277 1.87-.828 2.483-.555.617-1.29.922-2.203.922-.93 0-1.668-.305-2.22-.922C.774-1.41.5-2.237.5-3.28c0-1.033.273-1.853.828-2.47.55-.625 1.29-.938 2.22-.938zm0 0"/></symbol><symbol overflow="visible" id="b"><path d="M.89-6.563H2.08l2.906 5.485v-5.484h.86V0H4.656L1.75-5.484V0H.89zm0 0"/></symbol><symbol overflow="visible" id="c"><path d="M.89-6.563h.876v2.688H5v-2.688h.89V0H5v-3.125H1.766V0H.89zm0 0"/></symbol></defs><g><path fill="#fff" d="M0 0h300v300H0z"/><path d="M129.324 217.676l-4.363-9.528" stroke-width="1.2" stroke="#000" stroke-miterlimit="10" fill="none"/><path d="M124.96 208.148l-4.362-9.527M120.598 198.62l6.07-8.538" stroke-width="1.2" stroke="#f00" stroke-miterlimit="10" fill="none"/><path d="M126.668 190.082l6.07-8.543" stroke-width="1.2" stroke="#000" stroke-miterlimit="10" fill="none"/><path d="M116.598 193.12h8v11h-8zm0 0" fill="#fff"/><use xlink:href="#a" x="116.598" y="201.784" fill="#f00"/><path d="M132.738 181.54l-8.726-19.056M136.348 177.582l-6.977-15.246M153.602 183.512l-20.864-1.973M124.012 162.484l12.14-17.082M124.012 162.484l-20.864-1.972M136.152 145.402l20.864 1.973M137.777 150.508l16.688 1.578M157.016 147.375l8.726 19.055M157.016 147.375l12.14-17.082M165.742 166.43l-12.14 17.082M160.508 165.28l-9.71 13.665M171.398 129.266l-4.363-9.528" stroke-width="1.2" stroke="#000" stroke-miterlimit="10" fill="none"/><path d="M167.035 119.738l-4.363-9.527" stroke-width="1.2" stroke="#f00" stroke-miterlimit="10" fill="none"/><path d="M166.914 131.316l-4.363-9.527" stroke-width="1.2" stroke="#000" stroke-miterlimit="10" fill="none"/><path d="M162.55 121.79l-4.36-9.528" stroke-width="1.2" stroke="#f00" stroke-miterlimit="10" fill="none"/><path d="M169.156 130.293l10.43.984" stroke-width="1.2" stroke="#000" stroke-miterlimit="10" fill="none"/><path d="M179.586 131.277l10.434.985" stroke-width="1.2" stroke="#00f" stroke-miterlimit="10" fill="none"/><path d="M152.434 105.738h8v11h-8zm0 0" fill="#fff"/><use xlink:href="#a" x="152.434" y="114.401" fill="#f00"/><path d="M190.02 132.262l6.07-8.54" stroke-width="1.2" stroke="#00f" stroke-miterlimit="10" fill="none"/><path d="M196.09 123.723l6.07-8.543" stroke-width="1.2" stroke="#000" stroke-miterlimit="10" fill="none"/><path d="M183.02 126.762h14v11h-14zm0 0" fill="#fff"/><g fill="#00f"><use xlink:href="#b" x="183.02" y="135.425"/><use xlink:href="#c" x="189.997" y="135.425"/></g><path d="M202.16 115.18l20.863 1.972M223.023 117.152l8.723 19.055M228.38 117.004l6.98 15.246M235.164 100.07l-12.14 17.082M231.746 136.207l10.434.984" stroke-width="1.2" stroke="#000" stroke-miterlimit="10" fill="none"/><path d="M242.18 137.19l10.43.99M252.61 138.18l6.07-8.543" stroke-width="1.2" stroke="#00f" stroke-miterlimit="10" fill="none"/><path d="M258.68 129.637l6.07-8.54" stroke-width="1.2" stroke="#000" stroke-miterlimit="10" fill="none"/><path d="M249.805 133.613l4.855-6.832" stroke-width="1.2" stroke="#00f" stroke-miterlimit="10" fill="none"/><path d="M254.66 126.78l4.856-6.83" stroke-width="1.2" stroke="#000" stroke-miterlimit="10" fill="none"/><path d="M249.61 132.68h7v11h-7zm0 0" fill="#fff"/><use xlink:href="#b" x="249.609" y="141.343" fill="#00f"/><path d="M264.75 121.098l-8.723-19.055M256.027 102.043l-20.863-1.973M253.477 106.754l-16.692-1.578M101.14 159.086l-6.07 8.54" stroke-width="1.2" stroke="#000" stroke-miterlimit="10" fill="none"/><path d="M95.07 167.625L89 176.168" stroke-width="1.2" stroke="#f00" stroke-miterlimit="10" fill="none"/><path d="M105.16 161.94l-6.07 8.544" stroke-width="1.2" stroke="#000" stroke-miterlimit="10" fill="none"/><path d="M99.09 170.484l-6.07 8.54" stroke-width="1.2" stroke="#f00" stroke-miterlimit="10" fill="none"/><path d="M103.148 160.512l-4.36-9.528" stroke-width="1.2" stroke="#000" stroke-miterlimit="10" fill="none"/><path d="M98.79 150.984l-4.364-9.527" stroke-width="1.2" stroke="#00f" stroke-miterlimit="10" fill="none"/><path d="M83.012 172.094h8v11h-8zm0 0" fill="#fff"/><use xlink:href="#a" x="83.012" y="180.757" fill="#f00"/><path d="M94.426 141.457l-10.434-.984" stroke-width="1.2" stroke="#00f" stroke-miterlimit="10" fill="none"/><path d="M83.992 140.473l-10.43-.985" stroke-width="1.2" stroke="#000" stroke-miterlimit="10" fill="none"/><path d="M87.426 135.957h14v11h-14zm0 0" fill="#fff"/><g fill="#00f"><use xlink:href="#b" x="87.426" y="144.62"/><use xlink:href="#c" x="94.403" y="144.62"/></g><path d="M73.563 139.488l-8.727-19.054M64.836 120.434l12.14-17.082M62.03 115.867l9.712-13.664M43.973 118.46l20.863 1.974M76.977 103.352l-4.364-9.528" stroke-width="1.2" stroke="#000" stroke-miterlimit="10" fill="none"/><path d="M72.613 93.824l-4.36-9.527M68.254 84.297L57.82 83.31" stroke-width="1.2" stroke="#00f" stroke-miterlimit="10" fill="none"/><path d="M57.82 83.31l-10.43-.986" stroke-width="1.2" stroke="#000" stroke-miterlimit="10" fill="none"/><path d="M65.703 89.008l-8.348-.79" stroke-width="1.2" stroke="#00f" stroke-miterlimit="10" fill="none"/><path d="M57.355 88.22l-8.343-.79" stroke-width="1.2" stroke="#000" stroke-miterlimit="10" fill="none"/><path d="M65.254 78.797h7v11h-7zm0 0" fill="#fff"/><use xlink:href="#b" x="65.254" y="87.46" fill="#00f"/><path d="M47.39 82.324L35.25 99.406M35.25 99.406l8.723 19.055M40.605 99.258l6.98 15.246" stroke-width="1.2" stroke="#000" stroke-miterlimit="10" fill="none"/></g></svg>
